X: 01032
T: DANCING WITH DUKE
C: Bob McQuillen Mar'74
B: Bob's Note Book 1 #32
%R: jig
Z: 2019 John Chambers <jc:trillian.mit.edu>
M: 6/8
L: 1/8
K: D
AG \
| FAA dAA | Bcd AFA | Bcd dAF | GAB EAG |\
| FAA dAA | Bcd AFA | Bcd AFD | EDC D :|
|: de \
| f3 a3 | gfe dcd | efe ded | cBc Ade |\
| f3 a3 | gfg ede | fgf edB | Add d :|
%%begintext align
%% For Duke Miller from
%% his Accordion Player
%% since 1954 - 20 yrs!
%% Best wishes always, Duke!
%%endtext

%%sep 1 1 500

%%sep 1 1 500

